X: 109
T: Leventine's Barrel
T: Reel, D
L: 1/16
M: C|
K: D
|: f2e2| d2f2A2d2 f4f2e2| d2f2b2a2 ^g2a2e2d2| c2e2A2c2 e2A2c2e2| d2f2b2a2 ^g2a2=g2e2| 
d2f2A2d2 f4f2e2| d2f2b2a2 ^g2a2e2d2| c2e2A2c2 e2A2c2e2| d4f4 d4:| 
|: d2c2| B4c4 d4b4| b2a2^g2a2 f4e2d2| c2e2A2c2 e2A2c2e2| d2f2b2a2 ^g2a2f2d2| 
B4c4 d4b4| b2a2^g2a2 f4e2d2| c2e2A2c2 e2A2c2e2| d4f4 d4:| 
B: Ryan's Mammoth Collection (Cole's 1001 Fiddle Tunes)
D: Glenn Graham/Rodney MacDonald, Traditionally Rockin', TR1
D: Morgan MacQuarrie, Kenloch Ceilidh
